teeny/solid/ruby.svg

<svg width="15" height="15" viewBox="0 0 15 15" fill="none" xmlns="http://www.w3.org/2000/svg">
<path d="M4.29301 4L8.05751 0.235504L9.73062 4H4.29301Z" fill="black"/>
<path d="M14.293 0L10.6613 3.63175L9.04716 0H14.293Z" fill="black"/>
<path d="M0.235501 8.05751L4.00012 9.73067V4.29289L0.235501 8.05751Z" fill="black"/>
<path d="M3.63174 10.6613L0.000118256 9.04721V14.2929L3.63174 10.6613Z" fill="black"/>
<path d="M5.00012 9.29289L9.29301 5H5.00012V9.29289Z" fill="black"/>
<path d="M15.0001 13.731L11.093 4.61427L15.0001 0.707107V13.731Z" fill="black"/>
<path d="M14.048 14.048L10.3314 5.37585L5.37584 10.3314L14.048 14.048Z" fill="black"/>
<path d="M4.61427 11.093L13.7307 15H0.707225L4.61427 11.093Z" fill="black"/>
</svg>

<svg viewBox="0 0 15 15" xmlns="http://www.w3.org/2000/svg"><g><path d="M4.29 4L8.05.23l1.67 3.76H4.28Z"/><path d="M14.293 0l-3.64 3.63L9.03-.01h5.24Z"/><path d="M.23 8.05l3.76 1.67V4.28L.22 8.04Z"/><path d="M3.63 10.66L-.01 9.04v5.24l3.63-3.64Z"/><path d="M5 9.29l4.29-4.3h-4.3v4.29Z"/><path d="M15 13.73l-3.91-9.12L14.99.7v13.02Z"/><path d="M14.04 14.04l-3.72-8.68 -4.96 4.95 8.67 3.71Z"/><path d="M4.61 11.093L13.72 15H.69l3.9-3.907Z"/></g></svg>
